icon_installer/data/icons/scalable/actions/show-hourglass-symbolic.svg

<?xml version="1.0" encoding="UTF-8"?>
<svg height="16px" viewBox="0 0 16 16" width="16px" xmlns="http://www.w3.org/2000/svg">
    <path d="m 5 0 c -0.96875 0 -2 1.050781 -2 2 v 2.988281 c 0 0.429688 0.222656 0.675781 0.554688 1.007813 l 2.023437 2.003906 l -2.007813 1.992188 c -0.367187 0.363281 -0.570312 0.6875 -0.570312 1 v 3.007812 c 0 1.011719 0.988281 2 2 2 h 6 c 1.007812 0 2 -1.011719 2 -2.003906 v -3.003906 c 0 -0.3125 -0.222656 -0.628907 -0.570312 -0.976563 l -2.015626 -2.015625 l 1.988282 -1.988281 c 0.261718 -0.261719 0.585937 -0.6875 0.597656 -1.015625 v -2.996094 c 0 -1.003906 -1.007812 -2 -2 -2 z m 6 4 h -6 v -2 h 6 m -3.589844 7 h 1.175782 l 2.414062 2.414062 v 1.585938 h -6 v -1.613281 z m 0 0" fill="#222222"/>
</svg>

<svg xmlns="http://www.w3.org/2000/svg" width="16" height="16"><path fill="#222" d="M5 0c-.969 0-2 1.05-2 2v2.988c0 .43.223.676.555 1.008L5.578 8 3.57 9.992c-.367.363-.57.688-.57 1V14c0 1.012.988 2 2 2h6c1.008 0 2-1.012 2-2.004v-3.004c0-.312-.223-.629-.57-.976L10.414 8l1.988-1.988c.262-.262.586-.688.598-1.016V2c0-1.004-1.008-2-2-2zm6 4H5V2h6M7.41 9h1.176L11 11.414V13H5v-1.613zm0 0"/></svg>
